Newaita-dark/apps/48/minitube.svg

<svg height="48pt" viewBox="0 0 48 48" width="48pt" xmlns="http://www.w3.org/2000/svg" xmlns:xlink="http://www.w3.org/1999/xlink"><linearGradient id="a" gradientUnits="userSpaceOnUse" x1="23.81478" x2="23.81478" y1="37.0894935" y2="39.07405950005"><stop offset="0" stop-opacity=".27451"/><stop offset="1" stop-opacity="0"/></linearGradient><linearGradient id="b"><stop offset="0" stop-opacity=".313726"/><stop offset=".222222" stop-opacity=".27451"/><stop offset="1" stop-opacity="0"/></linearGradient><radialGradient id="c" cx="450.908936" cy="189.579361" gradientTransform="matrix(.00000026 -.117199 -.210958 -.00000015 79.684395 90.431589)" gradientUnits="userSpaceOnUse" r="21.166656" xlink:href="#b"/><radialGradient id="d" cx="450.908936" cy="189.579361" gradientTransform="matrix(-.00000026 .117199 .210958 .00000015 -31.80678 -16.252629)" gradientUnits="userSpaceOnUse" r="21.166656" xlink:href="#b"/><radialGradient id="e" cx="450.908936" cy="189.579361" gradientTransform="matrix(-.00000026 -.117199 .210958 -.00000015 -31.80678 90.431589)" gradientUnits="userSpaceOnUse" r="21.166656" xlink:href="#b"/><radialGradient id="f" cx="450.908936" cy="189.579361" gradientTransform="matrix(.00000026 .117199 -.210958 .00000015 79.684393 -16.252629)" gradientUnits="userSpaceOnUse" r="21.166656" xlink:href="#b"/><linearGradient id="g" gradientUnits="userSpaceOnUse" x1="23.814786" x2="23.814786" y1="38.08177100005" y2="8.3132869999"><stop offset="0" stop-color="#bdbdbd"/><stop offset="1" stop-color="#e0e0e0"/></linearGradient><linearGradient id="h" gradientUnits="userSpaceOnUse" x1="23.809941" x2="23.809941" y1="30.63193962499" y2="15.7476995001"><stop offset="0" stop-color="#f44336"/><stop offset="1" stop-color="#ef5350"/></linearGradient><path d="m7.691406 37.089844h32.496094v1.984375h-32.496094zm0 0" fill="url(#a)"/><path d="m40.1875 37.089844h3.96875v-1.984375h-3.96875zm0 0" fill="url(#c)"/><path d="m7.691406 37.089844h-3.96875v1.984375h3.96875zm0 0" fill="url(#d)"/><path d="m7.691406 37.089844h-3.96875v-1.984375h3.96875zm0 0" fill="url(#e)"/><path d="m40.1875 37.089844h3.96875v1.984375h-3.96875zm0 0" fill="url(#f)"/><path d="m43.660156 13.273438c-.476562-1.777344-1.878906-3.179688-3.660156-3.65625-3.246094-.890626-16.242188-.890626-16.242188-.890626s-12.996093 0-16.242187.855469c-1.746094.476563-3.179687 1.914063-3.660156 3.691407-.855469 3.25-.855469 9.988281-.855469 9.988281s0 6.769531.855469 9.984375c.480469 1.777344 1.878906 3.179687 3.660156 3.660156 3.28125.886719 16.242187.886719 16.242187.886719s12.996094 0 16.242188-.855469c1.78125-.476562 3.183594-1.878906 3.660156-3.65625.855469-3.25.855469-9.988281.855469-9.988281s.035156-6.769531-.855469-10.019531zm0 0" fill="url(#g)"/><path d="m23.757812 8.726562s-12.996093 0-16.242187.855469c-1.746094.476563-3.179687 1.914063-3.660156 3.691407-.855469 3.25-.855469 9.988281-.855469 9.988281s0 .125.003906.339843c.011719-1.394531.109375-6.832031.851563-9.648437.480469-1.777344 1.914062-3.214844 3.660156-3.691406 3.246094-.855469 16.242187-.855469 16.242187-.855469s12.996094 0 16.242188.886719c1.78125.480469 3.183594 1.882812 3.660156 3.660156.753906 2.757813.84375 8.03125.855469 9.574219 0-.121094 0-.234375 0-.234375s.035156-6.769531-.855469-10.019531c-.476562-1.777344-1.878906-3.179688-3.660156-3.65625-3.246094-.890626-16.242188-.890626-16.242188-.890626zm0 0" fill="#fff" fill-opacity=".980645"/><path d="m23.757812 37.832031s-12.996093 0-16.242187-.851562c-1.746094-.480469-3.179687-1.917969-3.660156-3.695313-.855469-3.25-.855469-9.984375-.855469-9.984375s0-.125.003906-.339843c.011719 1.394531.109375 6.828124.851563 9.644531.480469 1.78125 1.914062 3.214843 3.660156 3.695312 3.246094.855469 16.242187.855469 16.242187.855469s12.996094 0 16.242188-.890625c1.78125-.476563 3.183594-1.878906 3.660156-3.660156.753906-2.753907.84375-8.03125.855469-9.570313v.230469s.035156 6.769531-.855469 10.019531c-.476562 1.777344-1.878906 3.179688-3.660156 3.660156-3.246094.886719-16.242188.886719-16.242188.886719zm0 0" fill-opacity=".235294"/><path d="m19.875 15.753906c-.558594-.019531-1.023438.425782-1.023438.984375v12.902344c0 .761719.832032 1.238281 1.492188.847656l10.914062-6.449219c.648438-.382812.648438-1.316406 0-1.699218l-10.914062-6.449219c-.144531-.085937-.304688-.132813-.46875-.136719zm0 0" fill="url(#h)"/><path d="m19.820312 15.753906c-.53125.007813-.96875.445313-.96875.984375v.492188c0-.558594.464844-1.003907 1.023438-.988281.164062.007812.324219.054687.46875.136718l10.914062 6.453125c.242188.140625.394532.363281.453126.601563.101562-.398438-.046876-.855469-.453126-1.09375l-10.914062-6.449219c-.144531-.085937-.304688-.132813-.46875-.136719-.019531 0-.035156 0-.054688 0zm0 0" fill="#fff" fill-opacity=".235294"/><path d="m19.820312 30.632812c-.53125-.011718-.96875-.445312-.96875-.988281v-.492187c0 .558594.464844 1.007812 1.023438.988281.164062-.003906.324219-.050781.46875-.136719l10.914062-6.449218c.242188-.144532.394532-.363282.453126-.605469.101562.402343-.046876.855469-.453126 1.097656l-10.914062 6.449219c-.144531.082031-.304688.128906-.46875.136718-.019531 0-.035156 0-.054688 0zm0 0" fill-opacity=".235294"/><g fill="#212121"><path d="m19.878906 15.613281c-.636718-.023437-1.167968.492188-1.167968 1.125v12.902344c0 .867187.957031 1.410156 1.703124.96875l10.914063-6.449219c.734375-.433594.734375-1.507812 0-1.941406l-10.914063-6.449219c-.160156-.097656-.347656-.152343-.535156-.15625zm-.007812.28125c.140625.003907.277344.042969.402344.117188l10.914062 6.449219c.558594.332031.558594 1.125 0 1.457031l-10.914062 6.449219c-.574219.339843-1.28125-.066407-1.28125-.726563v-12.902344c0-.480469.398437-.859375.878906-.84375zm0 0"/><path d="m23.757812 8.554688s-3.25 0-6.910156.109374c-3.65625.105469-7.699218.308594-9.375.753907h-.003906c-1.804688.492187-3.285156 1.972656-3.777344 3.8125-.4375 1.652343-.648437 4.152343-.753906 6.246093-.109375 2.09375-.109375 3.785157-.109375 3.785157s0 1.695312.109375 3.792969c.105469 2.101562.316406 4.597656.753906 6.234374.492188 1.839844 1.941406 3.285157 3.777344 3.78125 1.695312.457032 5.738281.671876 9.394531.785157 3.652344.109375 6.894531.109375 6.894531.109375s3.25 0 6.910157-.105469c3.65625-.109375 7.699219-.3125 9.378906-.753906 1.835937-.496094 3.285156-1.945313 3.777344-3.78125.4375-1.652344.648437-4.152344.753906-6.246094.109375-2.09375.109375-3.78125.109375-3.78125v-.003906s.007812-1.695313-.09375-3.796875c-.105469-2.105469-.316406-4.613282-.769531-6.265625-.492188-1.835938-1.941407-3.285157-3.777344-3.78125-1.679687-.457031-5.722656-.671875-9.378906-.78125-3.660157-.113281-6.910157-.113281-6.910157-.113281zm0 .34375s3.246094 0 6.898438.109374c3.652344.113282 7.730469.34375 9.300781.773438 1.71875.460938 3.074219 1.820312 3.539063 3.539062.4375 1.59375.652344 4.097657.753906 6.191407s.09375 3.78125.09375 3.78125 0 1.679687-.105469 3.765625c-.105469 2.085937-.324219 4.582031-.742187 6.175781-.464844 1.71875-1.820313 3.074219-3.539063 3.539063-1.570312.414062-5.648437.636718-9.300781.742187s-6.898438.105469-6.898438.105469-3.238281 0-6.886718-.109375c-3.644532-.109375-7.726563-.34375-9.3125-.773438-1.71875-.460937-3.074219-1.816406-3.539063-3.539062-.417969-1.578125-.636719-4.070313-.742187-6.160157-.105469-2.089843-.105469-3.777343-.105469-3.777343s0-1.683594.105469-3.765625c.105468-2.085938.324218-4.582032.742187-6.175782.464844-1.71875 1.855469-3.113281 3.539063-3.574218 1.574218-.414063 5.648437-.636719 9.300781-.742188 3.652344-.105468 6.898437-.105468 6.898437-.105468zm0 0"/></g></svg>

<?xml version="1.0" encoding="UTF-8"?>
<svg xmlns="http://www.w3.org/2000/svg" xmlns:xlink="http://www.w3.org/1999/xlink" width="48pt" height="48pt" viewBox="0 0 48 48" version="1.1">
<defs>
<linearGradient id="linear0" gradientUnits="userSpaceOnUse" x1="254" y1="233.5" x2="254" y2="254.666672" gradientTransform="matrix(0.093759,0,0,0.093759,-0.00000572259,15.196767)">
<stop offset="0" style="stop-color:rgb(0%,0%,0%);stop-opacity:0.27451;"/>
<stop offset="1" style="stop-color:rgb(0%,0%,0%);stop-opacity:0;"/>
</linearGradient>
<radialGradient id="radial0" gradientUnits="userSpaceOnUse" cx="450.908936" cy="189.579361" fx="450.908936" fy="189.579361" r="21.166656" gradientTransform="matrix(0.000000261256,-0.117199,-0.210958,-0.000000152308,79.684395,90.431589)">
<stop offset="0" style="stop-color:rgb(0%,0%,0%);stop-opacity:0.313726;"/>
<stop offset="0.222222" style="stop-color:rgb(0%,0%,0%);stop-opacity:0.27451;"/>
<stop offset="1" style="stop-color:rgb(0%,0%,0%);stop-opacity:0;"/>
</radialGradient>
<radialGradient id="radial1" gradientUnits="userSpaceOnUse" cx="450.908936" cy="189.579361" fx="450.908936" fy="189.579361" r="21.166656" gradientTransform="matrix(-0.000000261256,0.117199,0.210958,0.000000152308,-31.80678,-16.252629)">
<stop offset="0" style="stop-color:rgb(0%,0%,0%);stop-opacity:0.313726;"/>
<stop offset="0.222222" style="stop-color:rgb(0%,0%,0%);stop-opacity:0.27451;"/>
<stop offset="1" style="stop-color:rgb(0%,0%,0%);stop-opacity:0;"/>
</radialGradient>
<radialGradient id="radial2" gradientUnits="userSpaceOnUse" cx="450.908936" cy="189.579361" fx="450.908936" fy="189.579361" r="21.166656" gradientTransform="matrix(-0.000000261256,-0.117199,0.210958,-0.000000152308,-31.80678,90.431589)">
<stop offset="0" style="stop-color:rgb(0%,0%,0%);stop-opacity:0.313726;"/>
<stop offset="0.222222" style="stop-color:rgb(0%,0%,0%);stop-opacity:0.27451;"/>
<stop offset="1" style="stop-color:rgb(0%,0%,0%);stop-opacity:0;"/>
</radialGradient>
<radialGradient id="radial3" gradientUnits="userSpaceOnUse" cx="450.908936" cy="189.579361" fx="450.908936" fy="189.579361" r="21.166656" gradientTransform="matrix(0.000000261256,0.117199,-0.210958,0.000000152308,79.684393,-16.252629)">
<stop offset="0" style="stop-color:rgb(0%,0%,0%);stop-opacity:0.313726;"/>
<stop offset="0.222222" style="stop-color:rgb(0%,0%,0%);stop-opacity:0.27451;"/>
<stop offset="1" style="stop-color:rgb(0%,0%,0%);stop-opacity:0;"/>
</radialGradient>
<linearGradient id="linear1" gradientUnits="userSpaceOnUse" x1="254" y1="191.166672" x2="254" y2="-126.333344" gradientTransform="matrix(0.093759,0,0,0.093759,0,20.158175)">
<stop offset="0" style="stop-color:rgb(74.117649%,74.117649%,74.117649%);stop-opacity:1;"/>
<stop offset="1" style="stop-color:rgb(87.843138%,87.843138%,87.843138%);stop-opacity:1;"/>
</linearGradient>
<linearGradient id="linear2" gradientUnits="userSpaceOnUse" x1="254" y1="53.583332" x2="254" y2="-105.166656" gradientTransform="matrix(0.093759,0,0,0.093759,-0.00484515,25.60802)">
<stop offset="0" style="stop-color:rgb(95.686275%,26.274511%,21.176471%);stop-opacity:1;"/>
<stop offset="1" style="stop-color:rgb(93.725491%,32.549021%,31.37255%);stop-opacity:1;"/>
</linearGradient>
</defs>
<g id="surface1">
<path style=" stroke:none;fill-rule:nonzero;fill:url(#linear0);" d="M 7.691406 37.089844 L 40.1875 37.089844 L 40.1875 39.074219 L 7.691406 39.074219 Z M 7.691406 37.089844 "/>
<path style=" stroke:none;fill-rule:nonzero;fill:url(#radial0);" d="M 40.1875 37.089844 L 44.15625 37.089844 L 44.15625 35.105469 L 40.1875 35.105469 Z M 40.1875 37.089844 "/>
<path style=" stroke:none;fill-rule:nonzero;fill:url(#radial1);" d="M 7.691406 37.089844 L 3.722656 37.089844 L 3.722656 39.074219 L 7.691406 39.074219 Z M 7.691406 37.089844 "/>
<path style=" stroke:none;fill-rule:nonzero;fill:url(#radial2);" d="M 7.691406 37.089844 L 3.722656 37.089844 L 3.722656 35.105469 L 7.691406 35.105469 Z M 7.691406 37.089844 "/>
<path style=" stroke:none;fill-rule:nonzero;fill:url(#radial3);" d="M 40.1875 37.089844 L 44.15625 37.089844 L 44.15625 39.074219 L 40.1875 39.074219 Z M 40.1875 37.089844 "/>
<path style=" stroke:none;fill-rule:nonzero;fill:url(#linear1);" d="M 43.660156 13.273438 C 43.183594 11.496094 41.78125 10.09375 40 9.617188 C 36.753906 8.726562 23.757812 8.726562 23.757812 8.726562 C 23.757812 8.726562 10.761719 8.726562 7.515625 9.582031 C 5.769531 10.058594 4.335938 11.496094 3.855469 13.273438 C 3 16.523438 3 23.261719 3 23.261719 C 3 23.261719 3 30.03125 3.855469 33.246094 C 4.335938 35.023438 5.734375 36.425781 7.515625 36.90625 C 10.796875 37.792969 23.757812 37.792969 23.757812 37.792969 C 23.757812 37.792969 36.753906 37.792969 40 36.9375 C 41.78125 36.460938 43.183594 35.058594 43.660156 33.28125 C 44.515625 30.03125 44.515625 23.292969 44.515625 23.292969 C 44.515625 23.292969 44.550781 16.523438 43.660156 13.273438 Z M 43.660156 13.273438 "/>
<path style=" stroke:none;fill-rule:nonzero;fill:rgb(100%,100%,100%);fill-opacity:0.980645;" d="M 23.757812 8.726562 C 23.757812 8.726562 10.761719 8.726562 7.515625 9.582031 C 5.769531 10.058594 4.335938 11.496094 3.855469 13.273438 C 3 16.523438 3 23.261719 3 23.261719 C 3 23.261719 3 23.386719 3.003906 23.601562 C 3.015625 22.207031 3.113281 16.769531 3.855469 13.953125 C 4.335938 12.175781 5.769531 10.738281 7.515625 10.261719 C 10.761719 9.40625 23.757812 9.40625 23.757812 9.40625 C 23.757812 9.40625 36.753906 9.40625 40 10.292969 C 41.78125 10.773438 43.183594 12.175781 43.660156 13.953125 C 44.414062 16.710938 44.503906 21.984375 44.515625 23.527344 C 44.515625 23.40625 44.515625 23.292969 44.515625 23.292969 C 44.515625 23.292969 44.550781 16.523438 43.660156 13.273438 C 43.183594 11.496094 41.78125 10.09375 40 9.617188 C 36.753906 8.726562 23.757812 8.726562 23.757812 8.726562 Z M 23.757812 8.726562 "/>
<path style=" stroke:none;fill-rule:nonzero;fill:rgb(0%,0%,0%);fill-opacity:0.235294;" d="M 23.757812 37.832031 C 23.757812 37.832031 10.761719 37.832031 7.515625 36.980469 C 5.769531 36.5 4.335938 35.0625 3.855469 33.285156 C 3 30.035156 3 23.300781 3 23.300781 C 3 23.300781 3 23.175781 3.003906 22.960938 C 3.015625 24.355469 3.113281 29.789062 3.855469 32.605469 C 4.335938 34.386719 5.769531 35.820312 7.515625 36.300781 C 10.761719 37.15625 23.757812 37.15625 23.757812 37.15625 C 23.757812 37.15625 36.753906 37.15625 40 36.265625 C 41.78125 35.789062 43.183594 34.386719 43.660156 32.605469 C 44.414062 29.851562 44.503906 24.574219 44.515625 23.035156 C 44.515625 23.152344 44.515625 23.265625 44.515625 23.265625 C 44.515625 23.265625 44.550781 30.035156 43.660156 33.285156 C 43.183594 35.0625 41.78125 36.464844 40 36.945312 C 36.753906 37.832031 23.757812 37.832031 23.757812 37.832031 Z M 23.757812 37.832031 "/>
<path style=" stroke:none;fill-rule:nonzero;fill:url(#linear2);" d="M 19.875 15.753906 C 19.316406 15.734375 18.851562 16.179688 18.851562 16.738281 L 18.851562 29.640625 C 18.851562 30.402344 19.683594 30.878906 20.34375 30.488281 L 31.257812 24.039062 C 31.90625 23.65625 31.90625 22.722656 31.257812 22.339844 L 20.34375 15.890625 C 20.199219 15.804688 20.039062 15.757812 19.875 15.753906 Z M 19.875 15.753906 "/>
<path style=" stroke:none;fill-rule:nonzero;fill:rgb(100%,100%,100%);fill-opacity:0.235294;" d="M 19.820312 15.753906 C 19.289062 15.761719 18.851562 16.199219 18.851562 16.738281 L 18.851562 17.230469 C 18.851562 16.671875 19.316406 16.226562 19.875 16.242188 C 20.039062 16.25 20.199219 16.296875 20.34375 16.378906 L 31.257812 22.832031 C 31.5 22.972656 31.652344 23.195312 31.710938 23.433594 C 31.8125 23.035156 31.664062 22.578125 31.257812 22.339844 L 20.34375 15.890625 C 20.199219 15.804688 20.039062 15.757812 19.875 15.753906 C 19.855469 15.753906 19.839844 15.753906 19.820312 15.753906 Z M 19.820312 15.753906 "/>
<path style=" stroke:none;fill-rule:nonzero;fill:rgb(0%,0%,0%);fill-opacity:0.235294;" d="M 19.820312 30.632812 C 19.289062 30.621094 18.851562 30.1875 18.851562 29.644531 L 18.851562 29.152344 C 18.851562 29.710938 19.316406 30.160156 19.875 30.140625 C 20.039062 30.136719 20.199219 30.089844 20.34375 30.003906 L 31.257812 23.554688 C 31.5 23.410156 31.652344 23.191406 31.710938 22.949219 C 31.8125 23.351562 31.664062 23.804688 31.257812 24.046875 L 20.34375 30.496094 C 20.199219 30.578125 20.039062 30.625 19.875 30.632812 C 19.855469 30.632812 19.839844 30.632812 19.820312 30.632812 Z M 19.820312 30.632812 "/>
<path style=" stroke:none;fill-rule:nonzero;fill:rgb(12.941177%,12.941177%,12.941177%);fill-opacity:1;" d="M 19.878906 15.613281 C 19.242188 15.589844 18.710938 16.105469 18.710938 16.738281 L 18.710938 29.640625 C 18.710938 30.507812 19.667969 31.050781 20.414062 30.609375 L 31.328125 24.160156 C 32.0625 23.726562 32.0625 22.652344 31.328125 22.21875 L 20.414062 15.769531 C 20.253906 15.671875 20.066406 15.617188 19.878906 15.613281 Z M 19.871094 15.894531 C 20.011719 15.898438 20.148438 15.9375 20.273438 16.011719 L 31.1875 22.460938 C 31.746094 22.792969 31.746094 23.585938 31.1875 23.917969 L 20.273438 30.367188 C 19.699219 30.707031 18.992188 30.300781 18.992188 29.640625 L 18.992188 16.738281 C 18.992188 16.257812 19.390625 15.878906 19.871094 15.894531 Z M 19.871094 15.894531 "/>
<path style=" stroke:none;fill-rule:nonzero;fill:rgb(12.941177%,12.941177%,12.941177%);fill-opacity:1;" d="M 23.757812 8.554688 C 23.757812 8.554688 20.507812 8.554688 16.847656 8.664062 C 13.191406 8.769531 9.148438 8.972656 7.472656 9.417969 L 7.46875 9.417969 C 5.664062 9.910156 4.183594 11.390625 3.691406 13.230469 C 3.253906 14.882812 3.042969 17.382812 2.9375 19.476562 C 2.828125 21.570312 2.828125 23.261719 2.828125 23.261719 C 2.828125 23.261719 2.828125 24.957031 2.9375 27.054688 C 3.042969 29.15625 3.253906 31.652344 3.691406 33.289062 C 4.183594 35.128906 5.632812 36.574219 7.46875 37.070312 C 9.164062 37.527344 13.207031 37.742188 16.863281 37.855469 C 20.515625 37.964844 23.757812 37.964844 23.757812 37.964844 C 23.757812 37.964844 27.007812 37.964844 30.667969 37.859375 C 34.324219 37.75 38.367188 37.546875 40.046875 37.105469 C 41.882812 36.609375 43.332031 35.160156 43.824219 33.324219 C 44.261719 31.671875 44.472656 29.171875 44.578125 27.078125 C 44.6875 24.984375 44.6875 23.296875 44.6875 23.296875 L 44.6875 23.292969 C 44.6875 23.292969 44.695312 21.597656 44.59375 19.496094 C 44.488281 17.390625 44.277344 14.882812 43.824219 13.230469 C 43.332031 11.394531 41.882812 9.945312 40.046875 9.449219 C 38.367188 8.992188 34.324219 8.777344 30.667969 8.667969 C 27.007812 8.554688 23.757812 8.554688 23.757812 8.554688 Z M 23.757812 8.898438 C 23.757812 8.898438 27.003906 8.898438 30.65625 9.007812 C 34.308594 9.121094 38.386719 9.351562 39.957031 9.78125 C 41.675781 10.242188 43.03125 11.601562 43.496094 13.320312 C 43.933594 14.914062 44.148438 17.417969 44.25 19.511719 C 44.351562 21.605469 44.34375 23.292969 44.34375 23.292969 C 44.34375 23.292969 44.34375 24.972656 44.238281 27.058594 C 44.132812 29.144531 43.914062 31.640625 43.496094 33.234375 C 43.03125 34.953125 41.675781 36.308594 39.957031 36.773438 C 38.386719 37.1875 34.308594 37.410156 30.65625 37.515625 C 27.003906 37.621094 23.757812 37.621094 23.757812 37.621094 C 23.757812 37.621094 20.519531 37.621094 16.871094 37.511719 C 13.226562 37.402344 9.144531 37.167969 7.558594 36.738281 C 5.839844 36.277344 4.484375 34.921875 4.019531 33.199219 C 3.601562 31.621094 3.382812 29.128906 3.277344 27.039062 C 3.171875 24.949219 3.171875 23.261719 3.171875 23.261719 C 3.171875 23.261719 3.171875 21.578125 3.277344 19.496094 C 3.382812 17.410156 3.601562 14.914062 4.019531 13.320312 C 4.484375 11.601562 5.875 10.207031 7.558594 9.746094 C 9.132812 9.332031 13.207031 9.109375 16.859375 9.003906 C 20.511719 8.898438 23.757812 8.898438 23.757812 8.898438 Z M 23.757812 8.898438 "/>
</g>
</svg>
